X:1
T:Moritz Vogel 1846 - 1922 
T:Study in Broken Thirds
%%score { 1 | 2 }
L:1/8
M:3/4
K:F
V:1 treble 
V:2 bass 
V:1
"^Moritz Vogel \n(1846 - 1922)\n\n\n\n"!p!!<(! (!1!C[Q:1/4=120]"^Allegretto"!3!E!2!D!4!F!3!E!5!G | %1
 !1!F!3!A!2!G!4!B!3!A!<)!!5!c) |!<(! (!1!C!3!E!2!D!4!F!3!E!5!G | !1!F!3!A!2!G!4!B!3!A!<)!!5!c) | %4
!<(! (A^c=Bdce | dfegf!<)!a |!f! [eg]2) z2 (ed |!mf! c4) z2 |:!mp! (((([Acd]6 | [GBd]2)))) z4 | %10
 ((([GBc]6 | [FAc]2))) z4 | [FG=B]6 |!mf!!>(! [FAc]cBAGF | EDCB,A,G, | F,2 z4!>)! :| %16
V:2
!p! ((!5!!1![C,B,]6 | !4!!2![F,A,]2)) z4 | ((!5!!1![C,B,]6 | !4!!2![F,A,]2)) z4 | (([A,,G,]6 | %5
 [D,F,]2)) z4 | z!mf! (G,,C,E,G,F, |!mp! [C,E,]4) z2 |:!f!!<(! (D,^F,E,G,F,A,!<)! | G,B,A,CB,D) | %10
!<(! (C,E,D,F,E,G,!<)! | F,A,G,B,A,C) | z G,,A,,=B,,C,D, |!mf! C,2 z4 |!mp! [C,B,]2 z2 [C,E,]2 | %15
!p! z2!p! [F,,A,,C,]2 z2 :| %16

